X:40
T:Silver Demon
R:Reel
C:Pete Mac 1995
O:England
Z:Pete Mac Tunebook 2023 (see https://pghardy.net/tunebooks/).
Z:Creative Commons CC0 (Public Domain) licenced.
M:4/4
L:1/8
Q:1/4=210
K:A
cd|"A"e2 ee f2 f2|e2 ee f2 f2|e2 ee e2 A2|"E7"B4-B4|
"A"e2 ee f2 f2|e2 ee f2 ef|"E7"gfed c2 B2|"A"A6:|
|:c2|"A"A2 cc c2 A2|"D"A2 dd d2 A2|"A"A2 cc c2 A2|"E7"B6 c2|
"A"A2 cc c2 A2|"D"A2 dd d2 f2|"E7"e2 gg g2 e2|"A"a6:|

